resources/svg/border-left-o.svg

<svg xmlns="http://www.w3.org/2000/svg" viewBox="0 0 15 15" fill="none"><path d="M7 1.5H8M10 1.5H11M13 1.5H14M13 4.5H14M7 4.5H8M13 7.5H14M10 7.5H11M7 7.5H8M13 10.5H14M7 10.5H8M13 13.5H14M10 13.5H11M7 13.5H8M4 13.5H5M4 7.5H5M4 1.5H5M1.5 1V14" stroke="black"/></svg>

<svg xmlns="http://www.w3.org/2000/svg" viewBox="0 0 15 15" fill="none"><path d="M7 1.5h1m2 0h1m2 0h1m-1 3h1m-7 0h1m5 3h1m-4 0h1m-4 0h1m5 3h1m-7 0h1m5 3h1m-4 0h1m-4 0h1m-4 0h1m-1-6h1m-1-6h1M1.5 1v13" stroke="currentColor"/></svg>
